packages/katcn/src/icons/svg/explore.svg

<svg width="24" height="25" viewBox="0 0 24 25" fill="none" xmlns="http://www.w3.org/2000/svg">
<path fill-rule="evenodd" clip-rule="evenodd" d="M12 4.31201C7.58172 4.31201 4 7.89373 4 12.312C4 16.7303 7.58172 20.312 12 20.312C16.4183 20.312 20 16.7303 20 12.312C20 7.89373 16.4183 4.31201 12 4.31201ZM2 12.312C2 6.78916 6.47715 2.31201 12 2.31201C17.5228 2.31201 22 6.78916 22 12.312C22 17.8349 17.5228 22.312 12 22.312C6.47715 22.312 2 17.8349 2 12.312ZM14.7488 9.57192L11.835 10.5678C10.9994 10.874 10.4635 11.4515 10.2682 12.102C10.2645 12.1142 10.2606 12.1263 10.2565 12.1383L9.25982 15.0492L12.165 14.0562C13.0006 13.7501 13.5365 13.1725 13.7318 12.522C13.7367 12.5056 13.7421 12.4892 13.7479 12.473L14.2424 11.0897L14.7488 9.57192ZM16.495 7.71524C16.9148 8.09652 17.0776 8.66164 16.9651 9.22403C16.9569 9.26472 16.9462 9.30486 16.9331 9.34423L16.1362 11.7328L16.1293 11.7529L15.6393 13.1236C15.2317 14.4484 14.1817 15.4514 12.8395 15.939L12.8215 15.9454L9.0362 17.2392C9.00952 17.2483 8.98246 17.2563 8.9551 17.2631C8.4518 17.3888 7.90425 17.2714 7.50501 16.9088C7.08523 16.5275 6.92236 15.9624 7.03493 15.4C7.0436 15.3567 7.05511 15.3141 7.06941 15.2723L8.35862 11.5072C8.76471 10.1791 9.81598 9.17346 11.1605 8.68499L11.1785 8.67863L14.9638 7.38483C14.9905 7.37571 15.0175 7.36772 15.0449 7.36089C15.5482 7.23518 16.0957 7.35262 16.495 7.71524Z" fill="black"/>
</svg>

<svg xmlns="http://www.w3.org/2000/svg" fill="none" viewBox="0 0 24 25"><path fill="#000" fill-rule="evenodd" d="M12 4.312a8 8 0 1 0 0 16 8 8 0 0 0 0-16m-10 8c0-5.523 4.477-10 10-10s10 4.477 10 10-4.477 10-10 10-10-4.477-10-10m12.749-2.74-2.914.996c-.836.306-1.372.883-1.567 1.534l-.011.036-.997 2.911 2.905-.993c.836-.306 1.372-.883 1.567-1.534l.016-.049.494-1.383zm1.746-1.857c.42.382.583.947.47 1.509q-.012.06-.032.12l-.797 2.389-.007.02-.49 1.37c-.407 1.325-1.457 2.328-2.8 2.816l-.018.006-3.785 1.294-.08.024a1.58 1.58 0 0 1-1.451-.354c-.42-.381-.583-.947-.47-1.509q.013-.065.034-.128l1.29-3.765c.406-1.328 1.457-2.334 2.802-2.822l.018-.006 3.785-1.294.08-.024a1.58 1.58 0 0 1 1.451.354" clip-rule="evenodd"/></svg>
